public/assets/techs/nextjs.svg

<svg width="20" height="20" viewBox="0 0 20 20" fill="none" xmlns="http://www.w3.org/2000/svg">
<g clip-path="url(#clip0_310_102)">
<mask id="mask0_310_102" style="mask-type:luminance" maskUnits="userSpaceOnUse" x="0" y="0" width="20" height="20">
<path d="M20 0H0V20H20V0Z" fill="white"/>
</mask>
<g mask="url(#mask0_310_102)">
<path d="M6 6L6.54045 5.60967C6.37115 5.37525 6.07003 5.27671 5.79489 5.36567C5.51975 5.45464 5.33333 5.71084 5.33333 6H6ZM10 18.6667C5.21353 18.6667 1.33333 14.7865 1.33333 10H0C0 15.5228 4.47715 20 10 20V18.6667ZM18.6667 10C18.6667 14.7865 14.7865 18.6667 10 18.6667V20C15.5228 20 20 15.5228 20 10H18.6667ZM10 1.33333C14.7865 1.33333 18.6667 5.21353 18.6667 10H20C20 4.47715 15.5228 0 10 0V1.33333ZM10 0C4.47715 0 0 4.47715 0 10H1.33333C1.33333 5.21353 5.21353 1.33333 10 1.33333V0ZM6.66667 16V6H5.33333V16H6.66667ZM5.45955 6.39033L14.1263 18.3903L15.2071 17.6097L6.54045 5.60967L5.45955 6.39033ZM13.3333 5.33333V13.3333H14.6667V5.33333H13.3333Z" fill="#EEEEEE"/>
</g>
</g>
<defs>
<clipPath id="clip0_310_102">
<rect width="20" height="20" fill="white"/>
</clipPath>
</defs>
</svg>

<svg xmlns="http://www.w3.org/2000/svg" width="20" height="20" fill="none" xmlns:v="https://vecta.io/nano"><g clip-path="url(#B)"><mask id="A" maskUnits="userSpaceOnUse" x="0" y="0" width="20" height="20"><path d="M20 0H0V20H20V0Z" fill="#fff"/></mask><g mask="url(#A)"><path d="M6 6l.54-.39c-.169-.234-.47-.333-.746-.244s-.462.345-.462.634H6zm4 12.667A8.67 8.67 0 0 1 1.333 10H0c0 5.523 4.477 10 10 10v-1.333zM18.667 10A8.67 8.67 0 0 1 10 18.667V20c5.523 0 10-4.477 10-10h-1.333zM10 1.333A8.67 8.67 0 0 1 18.667 10H20c0-5.523-4.477-10-10-10v1.333zM10 0C4.477 0 0 4.477 0 10h1.333A8.67 8.67 0 0 1 10 1.333V0zM6.667 16V6H5.333v10h1.333zM5.46 6.39l8.667 12 1.081-.781-8.667-12-1.081.781zm7.874-1.057v8h1.333v-8h-1.333z" fill="#fff"/></g></g><defs><clipPath id="B"><path fill="#fff" d="M0 0h20v20H0z"/></clipPath></defs></svg>
